packages/core/src/svgs/pika.svg

<svg width="24" height="24" viewBox="0 0 24 24" fill="none" xmlns="http://www.w3.org/2000/svg">
<g clip-path="url(#clip0_31_15966)">
<path d="M0 0H24V24H0V0Z" fill="#FCE74F"/>
<path fill-rule="evenodd" clip-rule="evenodd" d="M10.787 6.93429C9.75847 7.24714 8.9999 8.31429 8.9999 10.5643C8.9999 12.7157 9.4799 13.7314 10.3928 14.4729C10.471 14.5377 10.5697 14.5726 10.6713 14.5714C10.9113 14.5714 11.1428 14.4129 11.1428 14.1429V8.33143C11.1428 7.5 11.6699 6 13.5128 6C15.8142 6 17.5713 8.16429 17.5713 10.5643C17.5713 12.8571 16.3713 15.2914 13.2256 15.96C12.947 16.0157 12.857 16.2514 12.857 16.5257V19.3414C12.857 19.7829 12.5699 20.1429 11.9999 20.1429C11.5456 20.1429 11.1428 19.7829 11.1428 19.3414V16.5214C11.1428 16.2471 10.8942 16.0157 10.6242 15.9471C8.99561 15.5186 6.42847 14.0186 6.42847 10.5643C6.42847 7.09286 9.06418 6.10714 10.6928 6.00429C10.7515 6.00133 10.8103 6.01051 10.8654 6.03127C10.9205 6.05202 10.9707 6.0839 11.0129 6.12491C11.0551 6.16592 11.0884 6.21519 11.1108 6.26965C11.1331 6.32411 11.144 6.38258 11.1428 6.44143C11.1428 6.65571 10.9842 6.84429 10.787 6.93429ZM12.857 13.9414V8.17714C12.857 7.42714 13.607 6.98143 14.1213 7.53C14.807 8.25857 15.4285 9.39429 15.4285 10.9843C15.4285 12.9086 14.5113 13.98 13.6799 14.49C13.2899 14.73 12.857 14.4043 12.857 13.9414Z" fill="black"/>
</g>
<defs>
<clipPath id="clip0_31_15966">
<rect width="24" height="24" fill="white"/>
</clipPath>
</defs>
</svg>

<svg xmlns="http://www.w3.org/2000/svg" width="24" height="24" fill="none" viewBox="0 0 24 24"><g clip-path="url(#a)"><path fill="#FCE74F" d="M0 0h24v24H0z"/><path fill="#000" fill-rule="evenodd" d="M10.787 6.934C9.758 7.247 9 8.314 9 10.564c0 2.152.48 3.167 1.393 3.909.078.065.177.1.278.098.24 0 .472-.158.472-.428V8.33c0-.831.527-2.331 2.37-2.331 2.301 0 4.058 2.164 4.058 4.564 0 2.293-1.2 4.727-4.345 5.396-.279.056-.369.291-.369.566v2.815c0 .442-.287.802-.857.802-.454 0-.857-.36-.857-.802v-2.82c0-.274-.249-.505-.519-.574-1.628-.428-4.196-1.928-4.196-5.383 0-3.471 2.636-4.457 4.265-4.56a.43.43 0 0 1 .45.437c0 .215-.159.403-.356.493m2.07 7.007V8.177c0-.75.75-1.196 1.264-.647.686.729 1.307 1.864 1.307 3.454 0 1.925-.917 2.996-1.748 3.506-.39.24-.823-.086-.823-.549" clip-rule="evenodd"/></g><defs><clipPath id="a"><path fill="#fff" d="M0 0h24v24H0z"/></clipPath></defs></svg>
